X:1
T:Title
%%score { ( 1 4 ) | ( 2 3 ) }
L:1/8
Q:1/4=110
M:4/4
K:C
V:1 treble nm="Grand Piano"
V:4 treble 
V:2 bass 
V:3 bass 
V:1
 [G,E]2 C>D E3 E | [B,D]2 E>F E4 | [A,F]GAF [G,E]2 G2 | [D^F]2 F>F =F4 | [G,E]2 C>D E3 E | %5
w: Charles~H.~Gabriel * * * *|||||
 [B,D]2 E>F [CE]4 | [EG]2 [DF][CE] [A,F]GAF | E2 [A,F]>F E4 | d2 d>^c d4 | [Ge]2 [Fd]>[Ec] [EG]4 | %10
w: |||||
 [FA][GB][Ac][FA] [EG] [Ge]3 | %11
w: |
[M:35/32] d2 e3/2-(3:2:6e3/4-e/8d3/4-d/8[Ec]3/4-[Ec]/8- [Ec]3- [Ec]/ |] %12
w: |
V:2
 z2 E,>F, G,3 C | z2 C>D [C,C]4 | z B,CA, z2 E2 | z2 A,>D z2 G,2 | z2 E,>F, G,3 C | z2 C>D C,4 | %6
 C,2 D,E, z B,CA, | G,2 z z/ B,/ [C,C]4 | [G,B,F]2 [G,B,F]>[G,_B,E] [G,=B,F]4 | %9
 [C,C]2 [C,C]>[C,C] [C,C]4 | [F,C]2 [F,C][F,C] [C,C] [C,C]3 | %11
[M:35/32][K:treble] [G,B,F]2 [G,CG]3/2-(3:2:6[G,CG]3/4-[G,CG]/8[G,F]3/4-[G,F]/8[K:bass][C,G,]3/4-[C,G,]/8- [C,G,]3- [C,G,]/ |] %12
V:3
 C,8 | [G,,G,]4 z4 | [F,,F,]4 C,4 | D,4 G,,4 | C,8 | [G,,G,]4 z4 | z4 F,4 | z2 G,,2 z4 | x8 | x8 | %10
 x8 |[M:35/32][K:treble] x14/3[K:bass] x49/12 |] %12
V:4
 x8 | x8 | x8 | z4 D2 z2 | x8 | x8 | x8 | x8 | x8 | x8 | x8 |[M:35/32] x35/4 |] %12

